mobile/24/svg/information-24.svg

<svg width="24" height="24" viewBox="0 0 24 24" fill="none" xmlns="http://www.w3.org/2000/svg">
<path fill-rule="evenodd" clip-rule="evenodd" d="M12 3.75C7.44365 3.75 3.75 7.44365 3.75 12C3.75 16.5563 7.44365 20.25 12 20.25C16.5563 20.25 20.25 16.5563 20.25 12C20.25 7.44365 16.5563 3.75 12 3.75ZM2 12C2 6.47715 6.47715 2 12 2C17.5228 2 22 6.47715 22 12C22 17.5228 17.5228 22 12 22C6.47715 22 2 17.5228 2 12Z" fill="black"/>
<path fill-rule="evenodd" clip-rule="evenodd" d="M12.875 7V8.75H11.125V7H12.875Z" fill="black"/>
<path fill-rule="evenodd" clip-rule="evenodd" d="M12.875 10.5V17H11.125V10.5H12.875Z" fill="black"/>
</svg>

<svg width="24" height="24" fill="none" xmlns="http://www.w3.org/2000/svg"><path fill-rule="evenodd" clip-rule="evenodd" d="M12 3.75a8.25 8.25 0 1 0 0 16.5 8.25 8.25 0 0 0 0-16.5zM2 12C2 6.477 6.477 2 12 2s10 4.477 10 10-4.477 10-10 10S2 17.523 2 12z" fill="#000"/><path fill-rule="evenodd" clip-rule="evenodd" d="M12.875 7v1.75h-1.75V7h1.75zM12.875 10.5V17h-1.75v-6.5h1.75z" fill="#000"/></svg>
